X: 19
T:Devil Among Ye Tailors, Bidford
M:4/4
L:1/8
Q:1/4=150
A:Bidford
P:A.(AB)3C
K:G
P:A
Bd^cd Bdcd|Bd^cd ed=cB|ce^de cede |ce^de fe=dc|
Bd^cd Bdcd|Bd^cd ed=cB|edcB  AGFE |D2F2  G4||
P:B
dgfg  dgfg|dgfg  edcB|ea^ga  ea^ga|ea^ga =gfed|
dgfg  dgfg|dgfg  edcB|edcB   AGFE |D2F2  G4||
P:C
Q:1/4=170
dgfg  dgfg|dgfg  edcB|ea^ga  ea^ga|ea^ga =gfed|
dgfg  dgfg|dgfg  edcB|edcB   AGFE |.D2.F2 .G4||

